X: 25179
T: Major Molle
R: reel
M: 4/4
K: Aminor
A<ee>d c>dB>c|A<ee>d Tc2 B<c|
A<E E2 A>Ec>E|A<EE>E c2 B<c|
Aeed cBA^G|Aeed c2 B2|
AE E/E/E cAB^G|AE E/E/E c2 Bc|

